X: 37737
T: Soldier's Joy
R: hornpipe
M: 4/4
K: Dmajor
FG|:AFDF AFDF|A2 d2 d2 cB|AFDF AFDF|G2E2 E2 FG|
AFDF AFDF|A2 d2 d2 de|fafd egec|1 d2 d2 d2 FG:|2 d2 d2 d2 de||
|:f2 f2 fagf|edcd egfe|f2 f2 fagf|edcB A2 de|
f2 f2 fagf|edcd egfe|fafd egec|1 d2 d2 d2 de:|2 d2 d2 d4||

